icons/svgs/fire-outline.svg

<svg width="24" height="24" viewBox="0 0 24 24" fill="none" xmlns="http://www.w3.org/2000/svg">
<path d="M6.72656 8.13281C5.75 9.85156 5.125 11.6094 5.125 13.0547C5.125 17.0781 8.13281 20.125 12 20.125C15.7891 20.125 18.875 17.0781 18.875 13.0547C18.875 11.9219 18.4453 10.3984 17.7422 8.91406C17.1172 7.50781 16.2969 6.25781 15.5156 5.4375C15.3594 5.63281 15.1641 5.90625 14.9297 6.17969C14.8516 6.33594 14.7344 6.49219 14.6172 6.64844C14.4609 6.88281 14.2656 7.15625 14.1484 7.3125C13.9922 7.54688 13.7188 7.66406 13.4062 7.70312C13.1328 7.70312 12.8594 7.54688 12.6641 7.3125C12.5469 7.15625 12.3906 6.96094 12.2344 6.80469C11.4922 5.82812 10.6328 4.73438 9.89062 3.99219C8.83594 5.00781 7.66406 6.49219 6.72656 8.13281ZM11.0234 2.46875C11.7656 3.17188 12.625 4.22656 13.3672 5.16406L13.4062 5.125C13.6797 4.69531 14.0312 4.22656 14.3438 3.91406C15.0078 3.32812 15.9844 3.32812 16.6484 3.91406C17.6641 4.92969 18.6797 6.49219 19.4219 8.13281C20.2031 9.73438 20.75 11.5312 20.75 13.0547C20.75 18.0938 16.8438 22 12 22C7.07812 22 3.25 18.0547 3.25 13.0547C3.25 11.1016 4.03125 9.03125 5.08594 7.19531C6.14062 5.35938 7.50781 3.64062 8.75781 2.46875C9.42188 1.88281 10.3984 1.88281 11.0234 2.46875ZM12.0391 18.25C9.57812 18.25 7.625 16.6875 7.58594 13.9922C7.58594 12.8203 8.25 11.7656 9.57812 10.125C9.85156 9.8125 10.3203 9.8125 10.5547 10.125C11.2188 10.9453 12.3516 12.4297 13.0156 13.25C13.25 13.5625 13.7188 13.5625 13.9531 13.25L14.9688 12.1172C15.2031 11.8047 15.6719 11.8438 15.8281 12.1953C16.8047 13.9922 16.375 16.2969 14.7344 17.4297C13.9141 17.9766 13.0547 18.25 12.0391 18.25Z" fill="black"/>
</svg>

<svg xmlns="http://www.w3.org/2000/svg" width="24" height="24" fill="currentColor" class="icon-fire-outline" viewBox="0 0 24 24">
  <mask id="a" width="18" height="20" x="3" y="2" maskUnits="userSpaceOnUse" style="mask-type:alpha">
    <path d="M6.727 8.133c-.977 1.719-1.602 3.476-1.602 4.922 0 4.023 3.008 7.07 6.875 7.07 3.79 0 6.875-3.047 6.875-7.07 0-1.133-.43-2.657-1.133-4.14-.625-1.407-1.445-2.657-2.226-3.477-.157.195-.352.468-.586.742a3.3 3.3 0 0 1-.313.468c-.156.235-.351.508-.469.665-.156.234-.43.351-.742.39-.273 0-.547-.156-.742-.39a5 5 0 0 0-.43-.508c-.742-.977-1.601-2.07-2.343-2.813-1.055 1.016-2.227 2.5-3.164 4.14m4.296-5.664c.743.703 1.602 1.758 2.344 2.695l.04-.039c.273-.43.624-.898.937-1.21a1.73 1.73 0 0 1 2.304 0c1.016 1.015 2.032 2.577 2.774 4.218.781 1.601 1.328 3.398 1.328 4.922C20.75 18.094 16.844 22 12 22c-4.922 0-8.75-3.945-8.75-8.945 0-1.953.781-4.024 1.836-5.86S7.508 3.641 8.758 2.47c.664-.586 1.64-.586 2.265 0m1.017 15.78c-2.46 0-4.414-1.562-4.453-4.258 0-1.172.664-2.226 1.992-3.867.274-.312.742-.312.977 0 .664.82 1.797 2.305 2.46 3.125a.586.586 0 0 0 .938 0l1.016-1.133c.234-.312.703-.273.86.078.976 1.797.546 4.102-1.095 5.235a4.67 4.67 0 0 1-2.695.82"/>
  </mask>
  <g mask="url(#a)">
    <path d="M0 0h24v24H0z"/>
  </g>
</svg>
